src/assets/dashboard-icon-white.svg

<svg width="29" height="28" viewBox="0 0 29 28" fill="none" xmlns="http://www.w3.org/2000/svg">
<path d="M2.18746 15.1512H11.3125C12.1489 15.1512 12.8333 14.4724 12.8333 13.6427V1.57467C12.8333 0.74499 12.1489 0.0661621 11.3125 0.0661621H2.18746C1.351 0.0661621 0.666626 0.74499 0.666626 1.57467V13.6427C0.666626 14.4724 1.351 15.1512 2.18746 15.1512ZM2.18746 27.2193H11.3125C12.1489 27.2193 12.8333 26.5405 12.8333 25.7108V19.6767C12.8333 18.8471 12.1489 18.1682 11.3125 18.1682H2.18746C1.351 18.1682 0.666626 18.8471 0.666626 19.6767V25.7108C0.666626 26.5405 1.351 27.2193 2.18746 27.2193ZM17.3958 27.2193H26.5208C27.3573 27.2193 28.0416 26.5405 28.0416 25.7108V13.6427C28.0416 12.813 27.3573 12.1342 26.5208 12.1342H17.3958C16.5593 12.1342 15.875 12.813 15.875 13.6427V25.7108C15.875 26.5405 16.5593 27.2193 17.3958 27.2193ZM15.875 1.57467V7.6087C15.875 8.43837 16.5593 9.1172 17.3958 9.1172H26.5208C27.3573 9.1172 28.0416 8.43837 28.0416 7.6087V1.57467C28.0416 0.74499 27.3573 0.0661621 26.5208 0.0661621H17.3958C16.5593 0.0661621 15.875 0.74499 15.875 1.57467Z" fill="white"/>
</svg>

<svg width="29" height="28" fill="none" xmlns="http://www.w3.org/2000/svg"><path d="M2.187 15.151h9.126a1.52 1.52 0 001.52-1.508V1.575a1.52 1.52 0 00-1.52-1.509H2.187a1.52 1.52 0 00-1.52 1.509v12.068c0 .83.684 1.508 1.52 1.508zm0 12.068h9.126a1.52 1.52 0 001.52-1.508v-6.034a1.52 1.52 0 00-1.52-1.509H2.187a1.52 1.52 0 00-1.52 1.509v6.034c0 .83.684 1.508 1.52 1.508zm15.209 0h9.125a1.52 1.52 0 001.52-1.508V13.643a1.52 1.52 0 00-1.52-1.509h-9.125a1.52 1.52 0 00-1.521 1.509V25.71c0 .83.684 1.508 1.52 1.508zM15.875 1.575v6.034c0 .83.684 1.508 1.52 1.508h9.126a1.52 1.52 0 001.52-1.508V1.575a1.52 1.52 0 00-1.52-1.509h-9.125a1.52 1.52 0 00-1.521 1.509z" fill="#fff"/></svg>
